telma/img/buttons/base-plane/Check.svg

<?xml version="1.0" encoding="UTF-8" standalone="no"?>
<!-- Created with Inkscape (http://www.inkscape.org/) -->
<svg
   xmlns:dc="http://purl.org/dc/elements/1.1/"
   xmlns:cc="http://creativecommons.org/ns#"
   xmlns:rdf="http://www.w3.org/1999/02/22-rdf-syntax-ns#"
   xmlns:svg="http://www.w3.org/2000/svg"
   xmlns="http://www.w3.org/2000/svg"
   xmlns:xlink="http://www.w3.org/1999/xlink"
   xmlns:sodipodi="http://sodipodi.sourceforge.net/DTD/sodipodi-0.dtd"
   xmlns:inkscape="http://www.inkscape.org/namespaces/inkscape"
   width="600"
   height="600"
   id="svg2"
   sodipodi:version="0.32"
   inkscape:version="0.46"
   version="1.0"
   sodipodi:docname="Check.svg"
   inkscape:output_extension="org.inkscape.output.svg.inkscape"
   inkscape:export-filename="D:\Documents and Settings\Маша\Рабочий стол\TELMA.V20\Projects\Interfaces\Telbase\TelBasePanel\images\Check.png"
   inkscape:export-xdpi="4.7978296"
   inkscape:export-ydpi="4.7978296">
  <defs
     id="defs4">
    <linearGradient
       inkscape:collect="always"
       id="linearGradient3267">
      <stop
         style="stop-color:#ff0000;stop-opacity:1;"
         offset="0"
         id="stop3269" />
      <stop
         style="stop-color:#ff0000;stop-opacity:0;"
         offset="1"
         id="stop3271" />
    </linearGradient>
    <linearGradient
       id="linearGradient3253">
      <stop
         style="stop-color:#ff0000;stop-opacity:1;"
         offset="0"
         id="stop3255" />
      <stop
         style="stop-color:#ff0000;stop-opacity:0;"
         offset="1"
         id="stop3257" />
    </linearGradient>
    <linearGradient
       id="linearGradient5422">
      <stop
         style="stop-color:#00bc00;stop-opacity:0.33201581;"
         offset="0"
         id="stop5424" />
      <stop
         style="stop-color:#00d63b;stop-opacity:0;"
         offset="1"
         id="stop5426" />
    </linearGradient>
    <inkscape:perspective
       sodipodi:type="inkscape:persp3d"
       inkscape:vp_x="0 : 526.18109 : 1"
       inkscape:vp_y="6.1230318e-14 : 1000 : 0"
       inkscape:vp_z="744.09448 : 526.18109 : 1"
       inkscape:persp3d-origin="372.04724 : 350.78739 : 1"
       id="perspective10" />
    <linearGradient
       inkscape:collect="always"
       xlink:href="#linearGradient3253"
       id="linearGradient3261"
       x1="-74.741104"
       y1="-86.035858"
       x2="60.712032"
       y2="-149.45459"
       gradientUnits="userSpaceOnUse" />
    <linearGradient
       inkscape:collect="always"
       xlink:href="#linearGradient3267"
       id="linearGradient3273"
       x1="123.15675"
       y1="130.17917"
       x2="131.75237"
       y2="121.43824"
       gradientUnits="userSpaceOnUse"
       gradientTransform="matrix(0.4886094,-3.0688775,0.4738435,3.1645097,130.33121,216.9853)" />
  </defs>
  <sodipodi:namedview
     id="base"
     pagecolor="#ffffff"
     bordercolor="#666666"
     borderopacity="1.0"
     gridtolerance="10000"
     guidetolerance="10"
     objecttolerance="10"
     inkscape:pageopacity="0.0"
     inkscape:pageshadow="2"
     inkscape:zoom="0.35"
     inkscape:cx="-761.9795"
     inkscape:cy="379.95426"
     inkscape:document-units="px"
     inkscape:current-layer="layer1"
     showgrid="false"
     showguides="true"
     inkscape:showpageshadow="false"
     inkscape:window-width="1029"
     inkscape:window-height="676"
     inkscape:window-x="162"
     inkscape:window-y="210"
     showborder="true">
    <inkscape:grid
       type="xygrid"
       visible="true"
       enabled="true"
       id="grid2393" />
  </sodipodi:namedview>
  <metadata
     id="metadata7">
    <rdf:RDF>
      <cc:Work
         rdf:about="">
        <dc:format>image/svg+xml</dc:format>
        <dc:type
           rdf:resource="http://purl.org/dc/dcmitype/StillImage" />
      </cc:Work>
    </rdf:RDF>
  </metadata>
  <g
     inkscape:label="Layer 1"
     inkscape:groupmode="layer"
     id="layer1">
    <rect
       ry="90"
       rx="90"
       y="10.602222"
       x="11.58176"
       height="576.74463"
       width="577.10175"
       id="rect2390"
       style="opacity:1;fill:none;fill-opacity:1;stroke:none;stroke-width:1;stroke-linecap:round;stroke-linejoin:miter;stroke-miterlimit:4;stroke-dasharray:none;stroke-dashoffset:0;stroke-opacity:1"
       inkscape:export-filename="P:\TELMA.V20\telma.v20_10_11\Projects\Interfaces\BaseInterface\Telbase\TelBasePanel\images\Check.png"
       inkscape:export-xdpi="4.9935446"
       inkscape:export-ydpi="4.9935446" />
    <rect
       style="opacity:1;fill:none;fill-opacity:0;stroke:none;stroke-width:23.16965866000000000;stroke-linecap:round;stroke-linejoin:miter;stroke-miterlimit:4;stroke-dasharray:none;stroke-dashoffset:0;stroke-opacity:1"
       id="rect5264"
       width="577.10175"
       height="576.74463"
       x="11.581718"
       y="11.612374"
       rx="90"
       ry="90"
       inkscape:export-filename="D:\Documents and Settings\Маша\Рабочий стол\TELMA.V20\Projects\Interfaces\Telbase\TelBasePanel\images\Check.png"
       inkscape:export-xdpi="4.7978296"
       inkscape:export-ydpi="4.7978296" />
  </g>
  <g
     inkscape:groupmode="layer"
     id="layer3"
     inkscape:label="Krivaja"
     style="opacity:1">
    <path
       id="path3177"
       d="M 162.63456,62.267905 L 162.63456,534.67101"
       style="fill:none;fill-rule:evenodd;stroke:#000000;stroke-width:30;stroke-linecap:round;stroke-linejoin:miter;stroke-miterlimit:4;stroke-dasharray:none;stroke-opacity:1" />
    <path
       style="fill:none;fill-rule:evenodd;stroke:#000000;stroke-width:30;stroke-linecap:round;stroke-linejoin:miter;stroke-miterlimit:4;stroke-dasharray:none;stroke-opacity:1"
       d="M 446.48743,61.257752 L 446.48743,533.66086"
       id="path3187" />
  </g>
  <g
     inkscape:groupmode="layer"
     id="layer2"
     inkscape:label="Linija"
     style="display:inline;opacity:1">
    <path
       style="fill:none;fill-rule:evenodd;stroke:#000000;stroke-width:30;stroke-linecap:round;stroke-linejoin:miter;stroke-miterlimit:4;stroke-dasharray:none;stroke-opacity:1"
       d="M 71.720831,531.30963 C 81.822357,457.56849 93.944187,437.36544 107.07617,414.13193 C 120.20815,390.89842 136.37059,369.68522 153.54319,355.54308 C 170.71578,341.40095 163.64471,346.45171 191.92898,325.23851 C 220.21326,304.0253 229.30463,294.93393 234.35539,291.90347"
       id="path3183" />
    <path
       style="fill:none;fill-rule:evenodd;stroke:#000000;stroke-width:30;stroke-linecap:round;stroke-linejoin:miter;stroke-miterlimit:4;stroke-dasharray:none;stroke-opacity:1"
       d="M 80.918269,140.1807 L 245.361,139.57033"
       id="path3185" />
    <path
       id="path3189"
       d="M 355.5737,530.29948 C 365.67522,456.55834 377.79705,436.35529 390.92904,413.12178 C 404.06102,389.88827 420.22346,368.67507 437.39606,354.53293 C 454.56865,340.3908 447.49758,345.44156 475.78185,324.22836 C 504.06613,303.01515 513.1575,293.92378 518.20826,290.89332"
       style="fill:none;fill-rule:evenodd;stroke:#000000;stroke-width:30;stroke-linecap:round;stroke-linejoin:miter;stroke-miterlimit:4;stroke-dasharray:none;stroke-opacity:1" />
    <path
       transform="matrix(0.1225987,0,0,0.1318865,358.29858,293.13)"
       d="M 1045.7143,400 A 304.28571,282.85715 0 1 1 437.14288,400 A 304.28571,282.85715 0 1 1 1045.7143,400 z"
       sodipodi:ry="282.85715"
       sodipodi:rx="304.28571"
       sodipodi:cy="400"
       sodipodi:cx="741.42859"
       id="path3162"
       style="opacity:1;fill:#ffffff;fill-opacity:1;stroke:#ff0000;stroke-width:117.96363831;stroke-linecap:round;stroke-linejoin:miter;stroke-miterlimit:4;stroke-dasharray:none;stroke-dashoffset:0;stroke-opacity:1"
       sodipodi:type="arc" />
    <path
       id="path3191"
       d="M 364.77114,139.17055 L 529.21387,138.56018"
       style="fill:none;fill-rule:evenodd;stroke:#000000;stroke-width:30;stroke-linecap:round;stroke-linejoin:miter;stroke-miterlimit:4;stroke-dasharray:none;stroke-opacity:1" />
    <path
       sodipodi:type="arc"
       style="opacity:1;fill:#ffffff;fill-opacity:1;stroke:#ff0000;stroke-width:117.96363831;stroke-linecap:round;stroke-linejoin:miter;stroke-miterlimit:4;stroke-dasharray:none;stroke-dashoffset:0;stroke-opacity:1"
       id="path3193"
       sodipodi:cx="741.42859"
       sodipodi:cy="400"
       sodipodi:rx="304.28571"
       sodipodi:ry="282.85715"
       d="M 1045.7143,400 A 304.28571,282.85715 0 1 1 437.14288,400 A 304.28571,282.85715 0 1 1 1045.7143,400 z"
       transform="matrix(0.1225987,0,0,0.1318865,354.25797,87.058879)" />
  </g>
  <g
     inkscape:groupmode="layer"
     id="layer4"
     inkscape:label="Strelki">
    <path
       style="fill:#ff0000;fill-opacity:1;fill-rule:evenodd;stroke:url(#linearGradient3273);stroke-width:34.64319610999999810;stroke-linecap:butt;stroke-linejoin:miter;stroke-miterlimit:4;stroke-dasharray:none;stroke-opacity:1"
       d="M 305.64574,229.95182 L 209.37932,229.29335"
       id="path3489"
       sodipodi:nodetypes="cc" />
    <path
       sodipodi:type="star"
       style="opacity:1;fill:url(#linearGradient3261);fill-opacity:1;stroke:#000000;stroke-width:1;stroke-linecap:round;stroke-miterlimit:4;stroke-dasharray:none;stroke-opacity:1"
       id="path3487"
       sodipodi:sides="3"
       sodipodi:cx="-20"
       sodipodi:cy="-132.85715"
       sodipodi:r1="76.903938"
       sodipodi:r2="35.012089"
       sodipodi:arg1="-0.96046964"
       sodipodi:arg2="0.28773554"
       inkscape:flatsided="false"
       inkscape:rounded="0"
       inkscape:randomized="0"
       d="M 24.076354,-195.87691 L 13.572705,-122.92136 L 12.53854,-63.176023 L -45.390996,-108.75023 L -96.614894,-139.51851 L -28.181709,-166.89986 L 24.076354,-195.87691 z"
       transform="matrix(0.4307059,-0.9482698,0.9199248,0.3973815,470.99848,267.95869)" />
  </g>
</svg>

<svg xmlns="http://www.w3.org/2000/svg" xmlns:xlink="http://www.w3.org/1999/xlink" width="600" height="600" xmlns:v="https://vecta.io/nano"><defs><linearGradient id="A" x1="-74.741" y1="-86.036" x2="60.712" y2="-149.455" gradientUnits="userSpaceOnUse"><stop offset="0" stop-color="red"/><stop offset="1" stop-color="red" stop-opacity="0"/></linearGradient><linearGradient id="B" x1="123.157" y1="130.179" x2="131.752" y2="121.438" gradientTransform="matrix(0.4886094,-3.0688775,0.4738435,3.1645097,130.33121,216.9853)" gradientUnits="userSpaceOnUse"><stop offset="0" stop-color="red"/><stop offset="1" stop-color="red" stop-opacity="0"/></linearGradient><path id="C" d="M71.721 531.31c10.102-73.741 22.223-93.944 35.355-117.178s29.294-44.447 46.467-58.589 10.102-9.091 38.386-30.305 37.376-30.305 42.426-33.335"/><path id="D" d="M486.502 345.885c0 20.603-16.702 37.305-37.305 37.305s-37.305-16.702-37.305-37.305 16.702-37.305 37.305-37.305 37.305 16.702 37.305 37.305z"/></defs><g fill="none" stroke="#000" stroke-width="30" stroke-linecap="round"><path d="M162.635 62.268v472.403M446.487 61.258v472.403"/><use xlink:href="#C"/><path d="M80.918 140.181l164.443-.61"/><use xlink:href="#C" x="283.853" y="-1.011"/></g><use xlink:href="#D" fill="#fff" stroke="red" stroke-width="15.02"/><path d="M364.771 139.171l164.443-.61" fill="none" stroke="#000" stroke-width="30" stroke-linecap="round"/><use xlink:href="#D" x="-4.041" y="-206.072" fill="#fff" stroke="red" stroke-width="15.02"/><path d="M305.646 229.952l-96.266-.658" fill="red" fill-rule="evenodd" stroke="url(#B)" stroke-width="34.643"/><path d="M24.076-195.877l-10.504 72.956-1.034 59.745-57.93-45.574-51.224-30.768 68.433-27.381 52.258-28.977z" transform="matrix(.430706 -.94827 .919925 .397382 470.99848 267.95869)" fill="url(#A)" stroke="#000"/></svg>
